X:6
%%MIDI gchord c
T:La revanche du triton
C:Bruno Scherrer
L:1/16
M:3/4
K:Cmaj
V:1
V:2
V:3 clef=bass
V:1
"Dm9"BcBA Bc z d z e z _e- | "AbΔ"_edc_B c8 | "BbΔ"z4 _Bc z _B z AG2- | "CΔ"G12 |
"Dm9"=BcBA Bc z d z e z _e- | "AbΔ"_edc_B c8 | "BbΔ"z4 A_B z c z dc2- | "FΔ"c12 |
"Am"efed e8 | "AmΔ/Ab"efed e8 | "Am7/G"efed ef z e z d d2- | "Am6/F"d12 |
"FΔ"cdc=B c8 | "AbΔ"_Bc_B_A _B8 | "BbΔ"_Bc_B=A _B6 c=B- | "CΔ"=B12 |
V:2
[eg]3[df] z [eg] [df]6 | [_eg]3[df] z [_eg] [df]6 | [dg]3[cf] z [dg] [cf]4 [Bce]2- | [Bce]12 |
[eg]3[df] z [eg] [df]6 | [_eg]3[df] z [_eg] [df]6 | [dg]3[cf] z [dg] [cf]4 [Ace]2- | [Ace]12 |
[ec]3[ca] z [ec] [ca]6 | [ec]3[B_a] z [ec] [B_a]6 | [ec]3[_Bg] z [ec] [_Bg]4 [Ac^f]2- | [Acf]12 |
[eg]3[df] z [eg] [df]6 | [_eg]3[df] z [_eg] [df]6 | [dg]3[cf] z [dg] [cf]4 [Bce]2- | [Bce]12 |
V:3
D,3A, E3 D,2 A,2 E | _A,,3_E, _B,3 _A,,2 _E,2 _B, | _B,,3F, A,3 _B,,2 F,2 A, | C,3G, B,8 | 
D,3A, E3 D,2 A,2 E | _A,,3_E, _B,3 _A,,2 _E,2 _B, | _B,,3F, A,3 _B,,2 F,2 A, | F,3A, C8 |
A,3C E3 A,2 C2 E | _A,3C E3 _A,2 C2 E | G,3C E3 G,2 C2 E | ^F,3C E8 |
F,3A, E3 F2 A,2 E | _A,,3_E, _B,3 _A,,2 _E,2 _B, | _B,,3F, A,3 _B,,2 F,2 A, | C,3G, B,8 ||
%%begintext
Intro: grille sans thème
Thème 1 principal, puis thème 2 avec le contre-chant (sans le thème principal)
Solos sur 2 grilles (dans la deuxième, on peut jouer le contre-chant)
Reprise du thème avec chant et contre-chant
%%endtext

